X: 1636
T: The Night We Made The Match
M:C|
L:1/8
B:O'Neill's 1636
N:"collected by Croninl"
Z:Transcribed by Nick Terhorst, nickte@microsoft.com
N: Fixed staff breaks [jc]
N: Fixed line wrapping [jc]
K:A
a2|a2 AB cBAB|cdec A2 ef|g2GA BAGA|BcdB GBdg|
|a2AB cBcd|edef gedB|cdeg aefd|cABG A2:|
|:AB|ceef edcA|ceefe2 dc|Bdde dBGA|Bcde dcBd|
|ceec BeeB|cABG ABcB|Aceg aefd|cABG A2:|


